public/images/astrologer-placeholder.svg

<svg xmlns="http://www.w3.org/2000/svg" fill="none" viewBox="0 0 600 800"><circle cx="300" cy="320" r="260" fill="#2e2b59" opacity=".05"/><g transform="translate(300 280)"><circle cy="-80" r="70" fill="#2e2b59" stroke="#c9a84c" stroke-width="2" opacity=".1"/><ellipse cy="-100" fill="#c9a84c" opacity=".6" rx="4" ry="12"/><path fill="#2e2b59" stroke="#c9a84c" stroke-width="2" d="M-100 40q0-60 40-70T0-20q20-20 60-10t40 70v80q0 20-20 20H-80q-20 0-20-20Z" opacity=".08"/><path stroke="#c9a84c" stroke-width="1.5" d="M-80-10q20 30 40 40 40 20 80 0 20-10 40-40" opacity=".4"/><ellipse cy="10" stroke="#c9a84c" opacity=".3" rx="35" ry="25"/><circle cy="35" r="5" fill="#c9a84c" opacity=".3"/></g><g opacity=".15" transform="matrix(.6 0 0 .6 300 520)"><path stroke="#c9a84c" stroke-linecap="round" stroke-width="4" d="M-30 20c0-30 15-45 35-45S30-10 20 5-5 30-20 35M20 5C35-5 45-20 40-35S20-55 5-50m0 0C-5-48-10-40-8-32m48-3c10 0 15-5 15-13s-7-12-13-7"/><circle cx="42" cy="-65" r="3" fill="#c9a84c"/></g><g stroke="#c9a84c" stroke-width="1.5" opacity=".2"><path d="M30 30v30m0-30h30"/><path stroke-width="1" d="m30 30 10 10"/><path d="M570 30v30m0-30h-30M30 770v-30m0 30h30m510 0v-30m0 30h-30"/></g><text x="300" y="680" fill="#c9a84c" font-family="serif" font-size="18" opacity=".4" text-anchor="middle">
    Pandit Shree Mahadev Joshi
  </text><text x="300" y="710" fill="#6f4278" font-family="serif" font-size="13" opacity=".3" text-anchor="middle">
    Vedic Astrologer &amp; Spiritual Guide
  </text></svg>

<svg xmlns="http://www.w3.org/2000/svg" viewBox="0 0 600 800" fill="none">
  <!-- Background circle -->
  <circle cx="300" cy="320" r="260" fill="#2E2B59" opacity="0.05"/>

  <!-- Person silhouette -->
  <g transform="translate(300, 280)">
    <!-- Head -->
    <circle cx="0" cy="-80" r="70" stroke="#C9A84C" stroke-width="2" fill="#2E2B59" opacity="0.1"/>
    <!-- Tilak mark on forehead -->
    <ellipse cx="0" cy="-100" rx="4" ry="12" fill="#C9A84C" opacity="0.6"/>

    <!-- Body/shoulders -->
    <path d="M-100 40 Q-100 -20 -60 -30 Q-20 -40 0 -20 Q20 -40 60 -30 Q100 -20 100 40 L100 120 Q100 140 80 140 L-80 140 Q-100 140 -100 120 Z"
          stroke="#C9A84C" stroke-width="2" fill="#2E2B59" opacity="0.08"/>

    <!-- Shawl/uttariya -->
    <path d="M-80 -10 Q-60 20 -40 30 Q0 50 40 30 Q60 20 80 -10"
          stroke="#C9A84C" stroke-width="1.5" fill="none" opacity="0.4"/>

    <!-- Mala/necklace -->
    <ellipse cx="0" cy="10" rx="35" ry="25" stroke="#C9A84C" stroke-width="1" fill="none" opacity="0.3"/>
    <circle cx="0" cy="35" r="5" fill="#C9A84C" opacity="0.3"/>
  </g>

  <!-- Om symbol below -->
  <g transform="translate(300, 520) scale(0.6)" opacity="0.15">
    <path d="M-30 20 C-30 -10 -15 -25 5 -25 C25 -25 30 -10 20 5 C10 20 -5 30 -20 35 M20 5 C35 -5 45 -20 40 -35 C35 -50 20 -55 5 -50 M5 -50 C-5 -48 -10 -40 -8 -32 M40 -35 C50 -35 55 -40 55 -48 C55 -56 48 -60 42 -55"
          stroke="#C9A84C" stroke-width="4" fill="none" stroke-linecap="round"/>
    <circle cx="42" cy="-65" r="3" fill="#C9A84C"/>
  </g>

  <!-- Decorative border corners -->
  <g stroke="#C9A84C" stroke-width="1.5" fill="none" opacity="0.2">
    <!-- Top-left -->
    <path d="M30 30 L30 60 M30 30 L60 30"/>
    <path d="M30 30 Q30 30 40 40" stroke-width="1"/>
    <!-- Top-right -->
    <path d="M570 30 L570 60 M570 30 L540 30"/>
    <!-- Bottom-left -->
    <path d="M30 770 L30 740 M30 770 L60 770"/>
    <!-- Bottom-right -->
    <path d="M570 770 L570 740 M570 770 L540 770"/>
  </g>

  <!-- Name text area indicator -->
  <text x="300" y="680" text-anchor="middle" font-family="serif" font-size="18" fill="#C9A84C" opacity="0.4">
    Pandit Shree Mahadev Joshi
  </text>
  <text x="300" y="710" text-anchor="middle" font-family="serif" font-size="13" fill="#6F4278" opacity="0.3">
    Vedic Astrologer &amp; Spiritual Guide
  </text>
</svg>
